icons/to-go-cup.svg

<?xml version="1.0" encoding="UTF-8"?><svg xmlns="http://www.w3.org/2000/svg" viewBox="0 0 50 50"><g id="uuid-5759b5c1-e3eb-4a5f-864e-793a6902bbf9"><path d="M40.44,4.42h-2.66V.97c0-.28-.22-.5-.5-.5H12.72c-.28,0-.5,.22-.5,.5v3.44h-2.66c-.28,0-.5,.22-.5,.5v3.47c0,.28,.22,.5,.5,.5h2.34l.82,7.33h-.7c-.14,0-.28,.06-.37,.17-.09,.11-.14,.25-.12,.39l2.05,18.38c.03,.25,.24,.44,.5,.44h.81l1.45,13c.03,.25,.24,.44,.5,.44h16.35c.25,0,.47-.19,.5-.44l1.45-13h.81c.25,0,.47-.19,.5-.44l2.05-18.38c.02-.14-.03-.28-.12-.39-.09-.11-.23-.17-.37-.17h-.7l.82-7.33h2.34c.28,0,.5-.22,.5-.5v-3.47c0-.28-.22-.5-.5-.5Zm-.5,3.47H10.06v-2.47h29.88v2.47ZM13.22,1.47h23.56v2.94H13.22V1.47Zm1.3,33.11l-1.94-17.38h24.84l-1.94,17.38H14.52Zm18.21,13.44h-15.45l-1.39-12.44h18.23l-1.39,12.44Zm3.55-31.82H13.73l-.82-7.33h24.18l-.82,7.33Z"/></g><g id="uuid-634b40bb-be6d-4bc5-b0cb-4d11c57e737d"><text transform="translate(.02 55.07)" font-family="Roboto-Regular, Roboto" font-size="6"><tspan x="0" y="0" letter-spacing="0em">t</tspan><tspan x="1.9" y="0">o-go-cup</tspan></text></g></svg>

<svg xmlns="http://www.w3.org/2000/svg" viewBox="0 0 50 50"><g id="aa884435-da73-4580-ad94-0cfeb97785fd" data-name="ICONS"><path d="M40.44,4.42H37.78V1a.5.5,0,0,0-.5-.5H12.72a.5.5,0,0,0-.5.5V4.42H9.56a.5.5,0,0,0-.5.5V8.38a.5.5,0,0,0,.5.5H11.9l.82,7.33H12a.48.48,0,0,0-.37.17.49.49,0,0,0-.13.39l2.05,18.37a.51.51,0,0,0,.5.45h.81l1.45,13a.5.5,0,0,0,.5.45H33.17a.5.5,0,0,0,.5-.45l1.45-13h.81a.51.51,0,0,0,.5-.45l2-18.37a.49.49,0,0,0-.13-.39.48.48,0,0,0-.37-.17h-.7l.82-7.33h2.34a.5.5,0,0,0,.5-.5V4.92A.5.5,0,0,0,40.44,4.42Zm-.5,3.46H10.06V5.42H39.94ZM13.22,1.47H36.78v3H13.22Zm1.3,33.12L12.58,17.21H37.42L35.49,34.59ZM32.73,48H17.27L15.89,35.59H34.11Zm3.54-31.82H13.73l-.82-7.33H37.09Z"/></g><g id="b071761a-57eb-4a71-80af-669e94c8b98b" data-name="LABELS"><text transform="translate(0.02 55.07)" font-size="6" font-family="Roboto-Regular, Roboto"><tspan letter-spacing="-0.01em">t</tspan><tspan x="1.9" y="0">o-go-cup</tspan></text></g></svg>
